X: 3
T: Manderston House
C: A.Mackintosh
P: Tune for "Chain Walk"
B: Roy Goldring "14 Social Dances for 2000"
R: strathspey
Z: 2015 John Chambers <jc:trillian.mit.edu>
M: C
L: 1/8
K: G
D |\
"G"G>B G>D G>B d<g | "G"G>B "Am/c"A>G "D"F<D d>F |\
"G"G>B "D7/f#"A>B "G"G>B d<g | "Am/c"a<g "D7"b>a "G"g/g/g g/a/b |
"G"G>B G>D G>B d<g | "G"G>B "Am/c"A>G "D"F<D d>F |\
"G"G>B "D7/f#"A>B "G"G>B d<g | "Am/c"a<g "D7"b>a "G"g/g/g g |]
g/a/ |\
"G"b>g a>b g<d g>f | "C"e/f/e/d/ "Am"c/d/c/B/ "D"A/B/A/G/ F<D |\
"G"b<g a>b gdBG | "C"c<e "D7"d>B "G"G/G/G Gg/a/ |
"G"(3bgb "D/f#"(3afa "Em"(3geg "D"(3fdf | "C"(3ece "G/b"(3dBG "D"F>A F<D |\
"C"E<G C>E "D7"F<A D>c | "G"B<d "D7"A>c "G"B<G G |]
